X:1
T:Soldiers of Christ, March On
T:Soldiers of Christ, March On
T:James Ramsey Murray
T:Alice M. Schoff, 1888
T:Public Domain Courtesy of the Cyber Hymnal™
C:James Ramsey Murray
Z:Public Domain
Z:Courtesy of the Cyber Hymnal™
%%score ( 1 2 ) ( 3 4 )
L:1/8
Q:1/4=108
M:4/4
K:C
V:1 treble 
V:2 treble 
V:3 bass 
V:4 bass 
V:1
 [Ec]2 [Ec]>c [Ec]2 [GB]2 | [FA]6 z2 | [^Fd]2 [Fd]>[Fd] [Fd]2 [Ac]2 | [GB]6 G2 | %4
w: 1.~Sol- diers of Christ, march|on,|March on in ar- mor|clad, With|
w: 2.~Not steel, thy buck- ler|strong,|Thy hel- met and thy|shield, But|
w: 3.~Then, sol- diers brave, march|on,|March on to vic- to-|ry; Sin|
 [Gc]2 [Gc]2 [Gd]2 [Gd]2 | [Ge]3 [Fd] [Ec]2 G2 | [FA]2 [Fd]2 (cB) (AB) | [Ec]6 ||"^Refrain" G2 | %9
w: shield and buck- ler|gird- ed strong, With|bat- tle cry * most *|glad.||
w: right- eous- ness and|faith in God A|might- ier power * can *|wield.|March|
w: o- ver- thrown, right|tri- umph- ing, With|pa- tience we * shall *|see.||
 d6 G2 | e6 [Ge]2 | [Ff]2 [Ge]2 [Ad]2 [Ac]2 | e4 [Gd]2 G2 | [Gc]2 [Gc]2 [Gd]2 [Gd]2 | %14
w: |||||
w: on, march|on, march|on, march on, With|ban- ner and|with song, with song,|
w: |||||
 [Ge]3 [Fd] [Ec]2 G2 | [FA]2 [Fd]2 (cB) (AB) | c6 |] %17
w: |||
w: And as we march|we sing His * praise, *|To|
w: |||
V:2
 x8 | x8 | x8 | x6 G2 | x8 | x6 G2 | x4 F2 F2 | x6 || G2 | G2 G2 G2 G2 | G2 G2 G2 x2 | x8 | %12
 G2 G2 G2 x2 | x8 | x6 G2 | x4 F2 F2 | E2 F2 E2 |] %17
V:3
 [C,G,]2 [C,G,]>[C,G,] [C,G,]2 [E,C]2 | [F,C]6 z2 | [D,D]2 [D,A,]>[D,A,] [D,A,]2 [D,D]2 | %3
 [G,D]6 B,2 | [E,C]2 [E,C]2 [G,B,]2 [G,B,]2 | [C,C]3 [C,G,] [C,G,]2 [D,C]2 | %6
 [F,C]2 [D,D]2 [G,D]2 [G,D]2 | [C,C]6 || G,2 | [G,B,]2 [G,B,]2 [G,B,]2 [G,B,]2 | %10
 [C,C]2 [C,C]2 [C,C]2 [C,C]2 | [A,C]2 [G,C]2 [F,C]2 [^F,C]2 | [G,C]2 [G,C]2 [G,B,]2 D2 | %13
 [E,C]2 [E,C]2 [G,B,]2 [G,B,]2 | [C,C]3 [C,G,] [C,G,]2 [E,C]2 | [F,C]2 [D,D]2 [G,D]2 [G,D]2 | %16
 [C,C]2 [C,A,]2 [C,G,]2 |] %17
V:4
 x8 | x8 | x8 | x6 (G,F,) | x8 | x8 | x8 | x6 || G,2 | x8 | x8 | x8 | x6 (G,F,) | x8 | x8 | x8 | %16
 x6 |] %17

